assets/Koala/Flat/koala_flat.svg

<svg width="32" height="32" viewBox="0 0 32 32" fill="none" xmlns="http://www.w3.org/2000/svg">
<path d="M5.65736 15.3411C3.49828 14.2825 2 12.0601 2 9.5C2 5.93016 4.93016 3 8.5 3C10.4976 3 12.2896 3.91222 13.4836 5.3388C14.2869 5.11802 15.1339 5 16.0098 5C16.8798 5 17.7214 5.11645 18.5199 5.33438C19.7156 3.90895 21.5082 3 23.5 3C27.0802 3 30 5.93016 30 9.5C30 12.0578 28.5097 14.2786 26.3529 15.3383L27.3618 18.2188C27.7705 19.0955 28.0097 20.0707 27.9997 21.0951C27.9997 24.9071 24.8702 28 21.0131 28H10.8571V27.9902C7.05976 27.9212 4 24.8677 4 21.0951C4 20.0411 4.24917 19.0561 4.66777 18.1696L5.65736 15.3411Z" fill="#9B9B9B"/>
<path d="M6.10245 14.069C4.83271 13.1611 4 11.6752 4 10C4 7.2541 6.24385 5 9 5C10.0777 5 11.0796 5.34563 11.8993 5.9322C9.72975 6.97631 8.029 8.82161 7.17936 11.0775L7.15943 11.048L6.10245 14.069Z" fill="#636363"/>
<path d="M25.9054 14.0605C27.1707 13.1501 28 11.6655 28 10C28 7.24385 25.7459 5 23 5C21.9236 5 20.9254 5.3438 20.1084 5.92643C22.2836 6.96951 23.9891 8.81745 24.8403 11.0775L24.8502 11.048L25.9054 14.0605Z" fill="#636363"/>
<path d="M9 16.9687C9 16.4165 9.44772 15.9688 10 15.9688C10.5523 15.9688 11 16.4165 11 16.9688V17.9688C11 18.521 10.5523 18.9688 10 18.9688C9.44772 18.9688 9 18.521 9 17.9688V16.9687Z" fill="#1C1C1C"/>
<path d="M21 16.9687C21 16.4165 21.4477 15.9688 22 15.9688C22.5523 15.9688 23 16.4165 23 16.9688V17.9688C23 18.521 22.5523 18.9688 22 18.9688C21.4477 18.9688 21 18.521 21 17.9688V16.9687Z" fill="#1C1C1C"/>
<path d="M16 16C13.7909 16 12 17.7909 12 20V22C12 24.2091 13.7909 26 16 26C18.2091 26 20 24.2091 20 22V20C20 17.7909 18.2091 16 16 16Z" fill="#1C1C1C"/>
</svg>

<svg xmlns="http://www.w3.org/2000/svg" width="32" height="32" fill="none"><path fill="#9B9B9B" d="M5.657 15.341C3.498 14.283 2 12.061 2 9.5 2 5.93 4.93 3 8.5 3c1.998 0 3.79.912 4.984 2.339A9.52 9.52 0 0 1 16.01 5c.87 0 1.711.116 2.51.334A6.496 6.496 0 0 1 23.5 3C27.08 3 30 5.93 30 9.5a6.513 6.513 0 0 1-3.647 5.838l1.009 2.88c.409.878.648 1.853.638 2.877C28 24.907 24.87 28 21.013 28H10.857v-.01C7.06 27.921 4 24.868 4 21.095c0-1.054.25-2.039.668-2.925l.99-2.829Z"/><path fill="#636363" d="M6.102 14.069A5 5 0 0 1 4 10c0-2.746 2.244-5 5-5 1.078 0 2.08.346 2.9.932a9.405 9.405 0 0 0-4.72 5.146l-.02-.03-1.058 3.021ZM25.905 14.06A5.006 5.006 0 0 0 28 10c0-2.756-2.254-5-5-5a4.965 4.965 0 0 0-2.892.926 9.406 9.406 0 0 1 4.732 5.152l.01-.03 1.055 3.012Z"/><path fill="#1C1C1C" d="M9 16.969a1 1 0 0 1 2 0v1a1 1 0 0 1-2 0v-1ZM21 16.969a1 1 0 0 1 2 0v1a1 1 0 0 1-2 0v-1ZM16 16a4 4 0 0 0-4 4v2a4 4 0 0 0 8 0v-2a4 4 0 0 0-4-4Z"/></svg>
